!!!COM: Music21
!!!OTL: waltz_If-Young-Men-Could-Swim
!!!OMV: waltz_If-Young-Men-Could-Swim
**kern
*clefG2
*k[f#c#]
*M3/4
=1
4b
=
4b
4e
4b
=
2b
4b
=
4a
4d
4a
=
4f#
4e
8eL
8dJ
=
4e
4b
4a
=
2b
4a
=
4b
4ee
4ff#
=
8eeL
8ddJ
4b
8bL
8aJ
=
4b
4ee
4ff#
=
4gg
4ff#
4gg
!!linebreak:original
=
4ee
4dd
4ee
=
4b
4a
8bL
8aJ
=
8gL
8f#J
8gL
8aJ
8bL
8aJ
=
8gL
8f#J
8gL
8aJ
8bL
8ddJ
=
4ee
4e
4b
=
2e
4ryy
=||
*-
